X:1
T:Ratcliffe Highway
M:3/8
L:1/8
K:F
 z2 C| FAF| GBG| E F/2 z/2 C| FAF| GBd| c2 C| FAF| GBG| E F/2 z/2 c|\
 cdc| GBA| F2 z|
